P6
32 32
255
8A2<F4YpMQhGOfFTeGauPTeG>I5GU<XiIf{TXiI8@16>08@16>/6?0BO96>0:F3;F4>K7BR:6>/6>0FU<=H5awRUlJRhGVmKBO9HW>WmK]sO]pML[AJX?7@0CO9EQ;4<.?L8=G57@1:B3=H5FU<O`CAM8?J7?N8?M8<K6G\@9A26>/7@1AM9PfFFW=SjH]rNYpMOcDQjHLcC?K65=/8@18A18A1:C37@19A26?0@L79B26>0;D3IZ?5=.7?05=/<H5H]@NgFZoL9A25=.ReFCS;@M87@0EU=MdDMeEMeEKcC;E37?07?08A18@14<.7?05=.6?0?L7XkJ6>/8@1;G48A28A18A1DP:_tPbxRP`D8A27?04<.CT;<G4DU<<H4NfENfENeFJ`BSeFL[AL\@6>05=.6>/7@17?08@17?08B19C26>/;E46>0DW=ViHUgH`vPdzTUgH?L89B2EX=J`Bh|UezSexSOhGJaBLcDUlJawRXlKHV=:C35=/6?0BP:6?06?05=/8@18@18A1@P99B3NfE_tPbxSawRbxRbxRLaC<J5^uPn„[fzTh}V]oMWlJKaC`wQUkIawRYnK^sOHZ?=I67?18A29A28A18A2:F33;-6?/7B1AS:cxR`uPbxRdzSawRcySL^A9B2h}UjW`sO_qNh~V<G4DT;UlIXoL_uP]rN`uPL`BBR:MaC7@17@18@18@17A08B2QeEViHHV>ViIbxRVhH\qMK[@ViHdxSWgHeySN]AM[AOdEYkJ9D2<G5K]AUkI`uP]rNawR^tOCS;VjJ9B27?09B27?05=/9E3bvRYmKWjIbwR_tPP`CIY?7@0BO9[rNUiHfzT=I69C3@N9=J66>0>J6K^AOdD]sNdzTbxRUhH=I69B28A25=/9B35>/7?0NfFMdD<F4[pMdzT`vQ[rNPbD7A1PbD[sNTjHIY?>K7;G4DU<6>08B1J\@WnKe|UaxR\qMczTViI9B28@1OeERiHRhGDV=BT;BS;LcDXlJe{T8@18@14<-K[@SgG9C37A1OaD8A28A15?/9B29A26?0dySiWf{UZoLYmK^tOFS<6>/AO9SjIVmKcvR8A2?L87?0bxRSiHbwRBO9=I55=.6>09C2@M7SgGOcD8@1L]A9D26>06>/7@1auPauPg|UdzSeySf{T@L76?0BN9dySl‚YdxSCO:HU=6?0PeEQhGMaC>J67?08@18A2]oMQeFObDFV=O_CQbE]pN4<.6>0HY?]qMUgG]qNL[@VgHJW?IV=O^B>I6h}Vk€Xg|UAM77@1HY>UlJWnKXpMJZ?QbEbvR9B3@K79B36>08@1AL8]qNavQRcETgHSiHP_D[mL;E39A28A27@1ScE]qNWiHg}Vh}VcwQN]BGX><H5XpLPeEUkI\rNZoLZlKBN86>0:C35=.;E4;E3M\AavQ`uPk€XFX=J[@KZ?^rNCO95=/UeGi~VXjJWiIh~Ve{Tg{Ui~VK_A6?0RhGSjH\rNM^BYnL[qMJX?7@18@19A2=G5;D3KY?=H5i~Wg|U;F4:E3EU<PeETgGUeGi~VXiI8@1ES;SfF]sNNeEBQ::D36?0=I5@M7CQ:VjIZpLh}Uh}Vk€XEX=9C3L^A5=/7?05=/;E3atP8@1CQ:=I5;G4DQ:DQ;cySK\@7?0GV=M]AavQQhG7@08A26>/@M88@1?J7VjIh}VmƒZdySg|UFZ?9A2:F3:E45=/5>/7?0RgG9A26>/MbC8B1?K7RdF^tOYlK<G49B2]rNSjIFW=4<.7@1DT<<I4=I5FV<XmKg|UeySZlKRiHJaB7@1>L7=J68A24<.:B3SiHM`CSjHDT;@L8;D3JY??J7FT<RcE;E3XkJ<H5:E3;E4M`CI\@6?08A26>/5=/FS<bvQh}VAS:I_ALdDXmKBP:7@17?0K\A^tPVhHVhH=H5BN88B1=H4:D3;E3?J6^sOK]AJ^AEU<:D3RjH<I56>/5=/4<.6?06?0JX?cvRH^@ObD?M7RgF=I58B26@/ViH`vQWjIPaCHW=GU=GU=4<-=I5KZ@YmKZpMM`C?L7<H5BR:McDJ\@9A2:D35=/BP:IY?FV=HX>MaCQfFDS;TjHPeE:G4@P8BQ:UiHWkJ`vQawR_uPQbDM^B7@18A2GU<?J7BQ9<F5:C3J]A=J5GY>:D39B37?18A1M_C9C2HY>K\ABP9QfFUlI[rNFY>BT:EY=DS;GU<e{TH]@LcD<I5:E37?09B2ObDYpM7@19C26?0BR:RgFObD;H4L^A:C3;F4CQ:BP94<.5>/8@1UkIXpLLdDNfECV;KaCEW=AP9I^ALdDMdDG[?GZ?L[@P`CZlK\oM:E3I[@OcDBQ:NfFEX=6?0:E3=H5CR:GW=7@08A25=/8A1G[?H]@WoKi~Vg|U:C2@K7>L6<H5CT;GZ?MdD[rNe{TbwRGU=6?0iWbvQSkIBQ:LbC7@07@14<.HV=bwR[rNIX>;D4>H68A1;H48@1h}Vl‚Yk€XCO:7?0I]ARhG9B3BQ:FY>cyS[oLTfGVgHdySf{Th~VOgFCQ:G[?BS;6?08@1;E3bxRZmKO_BGT<>I5J_BJ_AI^AZkKi~WjWp†\4<.8A1;G4NeEOgF^tO]rN`uPGU<?J77@1=G4IY?I^AAQ:FY>AN98@17?07@19B29B2AL7<F5?J69E3AP9:D4>I6atPg{Tg{T<E49C3K`BMdDSkIQhGZmK^sOFS<6>/9A2VhH=J6<H5CS;CT<7?06>/;D47@17@1>J5DQ;8A26>0=J5J_A^sOGU=ES<?K7N]A_uP9C2K`BTlJPgFVlJMbCTlJ:D36>05>/DV<K^AFY>J_BFY>4<.8A2FU<7?0JY@CP:@L85=.5=/IX?\pM_tPQbE?J7:D3I_AOgFJ^AHZ?;G4OfEUmJUmJEV<AO9@Q9@P9@P9LdDSgGRhH8C15=.<F5ES<ThH7?08@1@M8BN9>I6AN9awQZoL[oLWjIYlKAR9>K7QeFNdE;G4:C3JY?@O8QhGK^AG]?I_AMfEI_AG]@KcCEZ>^tPRiHaxR[pM8A18@17?07?07@1@L7PhGOgFMeEOgF_vQOgFLbD